X: 10182
T: The SOLDIER'S RETURN
T: The Mill, Mill O
T: The Cuba March
T: The Blue Eyed Stranger
C:
%R: march
B: Elias Howe "The Musician's Companion" Part 1 1842 p.18 #2
S: http://imslp.org/wiki/The_Musician's_Companion_(Howe,_Elias)
Z: 2015 John Chambers <jc:trillian.mit.edu>
N: Added rest to start of 2nd strain, to fix the rhythm.
M: C
L: 1/8
K: D
% - - - - - - - - - - - - - - - - - - - - - - - - -
de |\
f2A>B A3d | BABd e2de | f2A2 gfed | B3c d2de |\
f2A>B A3d | BABd e2de | f2A2 gfed | B3c d2 |]
zA |\
defg a3a | bagf e3A | defg abag | f3g a2A2 |\
defg a2fa | bagf e2de | f2A2 gfed | B3c d2 |]
% - - - - - - - - - - - - - - - - - - - - - - - - -


